X:1
T:Title
%%score { 1 | ( 2 3 ) }
L:1/8
Q:1/4=100
M:6/8
K:Db
V:1 treble nm="Grand Piano"
V:2 bass 
V:3 bass 
V:1
 [FA][FA][FA] [GB][FA][_F=G] | [FA][Fd][Gd] [Fd]3 | ccc B2 c | [Fd]6 | %4
w: Sasmuel~W.~Beazley * * * * *||||
 [FA][FA][FA] [GB][FA][_F=G] | [FA][Fd][Gd] [Fd]3 | ccc dcB | [CA]6 | [FA][FA][EGA] [DFA]3 | %9
w: |||||
 [DGB][DGB][=DAB] [=Ge]3 | ccc cBc | [Fd][Gc][GB] [FA]3 | [FA][FA][EGA] [DFA]3 | %13
w: ||||
 [DGB][DGB][=DAB] [=Ge]3 | c2 c [GB]2 [Gc] | [Ge]3 [Fd]3 |] %16
w: |||
V:2
 [D,D][D,D][D,D] [D,D][D,D][D,D] | [D,D][D,A,][D,B,] [D,A,]3 | [A,G][A,G][A,G] [A,G]2 [A,G] | %3
 [D,A,]6 | [D,D][D,D][D,D] [D,D][D,D][D,D] | [D,D][D,A,][D,B,] [D,A,]3 | z3 .B,3 | [A,,A,]6 | %8
 [D,D][D,D]C, D,3 | G,G,F, [E,D]3 | [A,G][A,G][A,G] [A,G][A,G][A,G] | [D,A,][D,B,][D,C] [D,D]3 | %12
 [D,D][D,D]C, D,3 | G,G,F, [E,D]3 | [A,G]2 [A,G][K:bass] [A,,A,]2 [A,,A,] | [C,A,]3 [D,A,]3 |] %16
V:3
 x6 | x6 | x6 | x6 | x6 | x6 | [E,A,E][E,A,E][E,A,E] [E,E]-[E,A,E][E,=G,D] | x6 | x6 | x6 | x6 | %11
 x6 | x6 | x6 | x3[K:bass] x3 | x6 |] %16

